Sources/FrostedUI/Resources/Icons.xcassets/shareScreen12.imageset/share-screen-12.svg

<svg width="12" height="12" viewBox="0 0 12 12" fill="none" xmlns="http://www.w3.org/2000/svg" data-fui-icon="true">
  <path
    d="M8.5918 0.941406C10.1769 1.02171 11.4375 2.33239 11.4375 3.9375V8.0625C11.4375 9.71935 10.0944 11.0625 8.4375 11.0625H3.5625C1.90565 11.0625 0.5625 9.71935 0.5625 8.0625V3.9375C0.5625 2.28065 1.90565 0.9375 3.5625 0.9375H8.4375L8.5918 0.941406ZM3.5625 2.4375C2.73407 2.4375 2.0625 3.10907 2.0625 3.9375V8.0625C2.0625 8.89093 2.73407 9.5625 3.5625 9.5625H8.4375C9.26593 9.5625 9.9375 8.89093 9.9375 8.0625V3.9375C9.9375 3.16084 9.34722 2.52211 8.59082 2.44531L8.4375 2.4375H3.5625ZM5.36914 3.51562C5.76191 3.19527 6.34091 3.21787 6.70703 3.58398L8.21777 5.09473C8.51066 5.38762 8.51066 5.86238 8.21777 6.15527C7.92488 6.44814 7.45011 6.44815 7.15723 6.15527L6.75 5.74805V7.875C6.74998 8.2892 6.4142 8.625 6 8.625C5.5858 8.625 5.25002 8.2892 5.25 7.875V5.74805L4.84277 6.15527C4.54988 6.44815 4.07512 6.44815 3.78223 6.15527C3.48934 5.86239 3.48935 5.38762 3.78223 5.09473L5.29297 3.58398L5.36914 3.51562Z"
    fill="currentColor"
  />
</svg>

<svg xmlns="http://www.w3.org/2000/svg" width="12" height="12" fill="none" data-fui-icon="true" viewBox="0 0 12 12"><path fill="currentColor" d="M8.592.941a3 3 0 0 1 2.845 2.997v4.124a3 3 0 0 1-3 3H3.564a3 3 0 0 1-3-3V3.939a3 3 0 0 1 3-3h4.874zm-5.03 1.497a1.5 1.5 0 0 0-1.5 1.5v4.124a1.5 1.5 0 0 0 1.5 1.5h4.876a1.5 1.5 0 0 0 1.5-1.5V3.939A1.5 1.5 0 0 0 8.59 2.444l-.153-.007zM5.37 3.516a1 1 0 0 1 1.338.068l1.51 1.51a.75.75 0 1 1-1.06 1.061l-.407-.407v2.127a.75.75 0 0 1-1.5 0V5.748l-.407.407a.75.75 0 1 1-1.06-1.06l1.51-1.511z"/></svg>
